static/client-logos/studiohop-icon.svg

<svg height="60" viewBox="0 0 27 60" width="27" xmlns="http://www.w3.org/2000/svg"><path d="m15.0311352 48.6038393c3.8016302.2103681 6.7038046 1.3299011 6.7038046 2.6801029 0 1.5000256-3.5817487 2.7160578-7.9999637 2.7160578-4.41828767 0-8.00003634-1.2160322-8.00003634-2.7160578 0-1.353061 2.9143213-2.4745955 6.72788024-2.6815326l1.2995049 3.208275zm4.6285239-28.2822796c2.071532 1.7224202 3.3905903 4.315124 3.3905903 7.2158323 0 1.8529378-.5401919 3.5790585-1.468854 5.0343231h.002782c-.0058492.0074724-.0115557.0150871-.0173335.0226307-.2366059.3683529-.4978925.7190568-.782219 1.0499055-5.2663178 7.3557438-7.14604 15.9220138-7.14604 15.9220138s-1.8797222-8.56627-7.14604001-15.9220138c-.28432652-.3308487-.54568437-.6815526-.78221893-1.0499055-.00584917-.0075436-.01148434-.0151583-.01733351-.0226307h.00278192c-.92866207-1.4552646-1.46885393-3.1813853-1.46885393-5.0343231 0-2.9007083 1.31898689-5.4934121 3.3905189-7.2158323-.95990518-1.1757262-2.83092493-3.7053773-3.35071604-6.1320519-.70831971-3.3069213-.03074379-7.63940965 2.3313919-8.14297718 2.36213568-.50356752 4.7553718 3.17419761 5.4636915 6.48111898.4065171 1.8980567.0840283 4.1906554-.2644251 5.8007762.595545-.1178501 1.21092-.1808317 1.8412033-.1808317.630212 0 1.245587.0629816 1.8411319.1808317-.3484533-1.6101208-.6709421-3.9027195-.2643537-5.8007762.7082484-3.30692137 3.1015558-6.9846865 5.4636202-6.48111898 2.362207.50356753 3.0397116 4.83605588 2.3313919 8.14297718-.5197198 2.4266034-2.3908109 4.9562545-3.3507161 6.1320519zm-6.0211049 9.9675969c1.4904886 0 2.6987952-1.2082905 2.6987952-2.6987593 0-1.4905405-1.2083066-2.698831-2.6987952-2.698831-1.4905602 0-2.6987952 1.2082905-2.6987952 2.698831 0 1.4904688 1.208235 2.6987593 2.6987952 2.6987593zm-6.28963868-20.60957983c-1.0074674.21436048-1.23300702 2.35362983-.87852642 4.00497323.35448059 1.6513433 2.09354168 4.8455705 2.09354168 4.8455705l1.3097576-.2786118s.27580232-3.622877-.07867827-5.2742204c-.3544806-1.6512723-1.43862718-3.51200095-2.44609459-3.29771153zm10.13318448 3.29771153c-.3544838 1.6513434-.078679 5.2742204-.078679 5.2742204l1.309698.2786118s1.7391482-3.1942272 2.093632-4.8455705c.3544124-1.6513434.1289421-3.79061275-.8786058-4.00497323-1.0074051-.21428942-2.0916328 1.64643923-2.4460452 3.29771153z" fill="#fffffe" fill-rule="evenodd"/></svg>

<?xml version="1.0" encoding="UTF-8"?>
<svg width="27px" height="60px" viewBox="0 0 27 60" version="1.1" xmlns="http://www.w3.org/2000/svg" xmlns:xlink="http://www.w3.org/1999/xlink">
    <!-- Generator: Sketch 49.2 (51160) - http://www.bohemiancoding.com/sketch -->
    <title>studiohop-icon</title>
    <desc>Created with Sketch.</desc>
    <defs></defs>
    <g id="studiohop-icon" stroke="none" stroke-width="1" fill="none" fill-rule="evenodd">
        <path d="M15.0311352,48.6038393 C18.8327654,48.8142074 21.7349398,49.9337404 21.7349398,51.2839422 C21.7349398,52.7839678 18.1531911,54 13.7349761,54 C9.31668843,54 5.73493976,52.7839678 5.73493976,51.2839422 C5.73493976,49.9308812 8.64926106,48.8093467 12.46282,48.6024096 L13.7623249,51.8106846 L15.0311352,48.6038393 Z M19.6596591,20.3215597 C21.7311911,22.0439799 23.0502494,24.6366837 23.0502494,27.537392 C23.0502494,29.3903298 22.5100575,31.1164505 21.5813954,32.5717151 L21.5841774,32.5717151 C21.5783282,32.5791875 21.5726217,32.5868022 21.5668439,32.5943458 C21.330238,32.9626987 21.0689514,33.3134026 20.7846249,33.6442513 C15.5183071,40.9999951 13.6385849,49.5662651 13.6385849,49.5662651 C13.6385849,49.5662651 11.7588627,40.9999951 6.49254489,33.6442513 C6.20821837,33.3134026 5.94686052,32.9626987 5.71032596,32.5943458 C5.70447679,32.5868022 5.69884162,32.5791875 5.69299245,32.5717151 L5.69577437,32.5717151 C4.7671123,31.1164505 4.22692044,29.3903298 4.22692044,27.537392 C4.22692044,24.6366837 5.54590733,22.0439799 7.61743934,20.3215597 C6.65753416,19.1458335 4.78651441,16.6161824 4.2667233,14.1895078 C3.55840359,10.8825865 4.23597951,6.55009815 6.5981152,6.04653062 C8.96025088,5.5429631 11.353487,9.22072823 12.0618067,12.5276496 C12.4683238,14.4257063 12.145835,16.718305 11.7973816,18.3284258 C12.3929266,18.2105757 13.0083016,18.1475941 13.6385849,18.1475941 C14.2687969,18.1475941 14.8841719,18.2105757 15.4797168,18.3284258 C15.1312635,16.718305 14.8087747,14.4257063 15.2153631,12.5276496 C15.9236115,9.22072823 18.3169189,5.5429631 20.6789833,6.04653062 C23.0411903,6.55009815 23.7186949,10.8825865 23.0103752,14.1895078 C22.4906554,16.6161112 20.6195643,19.1457623 19.6596591,20.3215597 Z M13.6385542,30.2891566 C15.1290428,30.2891566 16.3373494,29.0808661 16.3373494,27.5903973 C16.3373494,26.0998568 15.1290428,24.8915663 13.6385542,24.8915663 C12.147994,24.8915663 10.939759,26.0998568 10.939759,27.5903973 C10.939759,29.0808661 12.147994,30.2891566 13.6385542,30.2891566 Z M7.34891552,9.67957677 C6.34144812,9.89393725 6.1159085,12.0332066 6.4703891,13.68455 C6.82486969,15.3358933 8.56393078,18.5301205 8.56393078,18.5301205 L9.87368838,18.2515087 C9.87368838,18.2515087 10.1494907,14.6286317 9.79501011,12.9772883 C9.44052951,11.326016 8.35638293,9.46528735 7.34891552,9.67957677 Z M17.4821,12.9772883 C17.1276162,14.6286317 17.403421,18.2515087 17.403421,18.2515087 L18.713119,18.5301205 C18.713119,18.5301205 20.4522672,15.3358933 20.806751,13.68455 C21.1611634,12.0332066 20.9356931,9.89393725 19.9281452,9.67957677 C18.9207401,9.46528735 17.8365124,11.326016 17.4821,12.9772883 Z" id="Combined-Shape" fill="#FFFFFE"></path>
    </g>
</svg>
